X:25
T:Hector's Birthday
R:jig
C:Paul S. Cranford
O:Cape Breton Island
S:http://www.cranfordpub.com
D:currently unrecorded
B:currently unpublished in book form
Z:psc
H:                                                        copyrights Cranford Publications, SOCAN
L:1/8
Q:300
M:6/8
K:Bmin
B2 bd2b|cae fec|Bbf abf|eaf ecA|
B2 bd2b|cae fec|Bbf abf|ecA ~B3:|
|:bBa f2 b|aeg fdB|cFd cFd|ece fec|
[1bBa f2 b|aeg fdB|cFA caf|ecA ~B3:|
[2B2 F D2 F|B,FD BFd|cFA caf|ecA ~B3|]
